<?xml version="1.0" encoding="UTF-8"?>
<map version="1.10" tiledversion="1.10.2" orientation="isometric" renderorder="right-down" width="12" height="10" tilewidth="64" tileheight="32" infinite="0" nextlayerid="5" nextobjectid="5">
 <tileset firstgid="1" source="office.tsx"/>
 <tileset firstgid="5" source="office-props.tsx"/>
 <layer id="1" name="Floor" width="12" height="10">
  <data encoding="csv">
1,1,1,1,4,4,2,2,3,3,3,3,
1,1,1,1,4,4,2,2,3,3,3,3,
1,1,1,1,4,4,2,2,3,3,3,3,
1,1,1,1,4,4,2,2,3,3,3,3,
1,1,1,1,4,4,2,2,3,3,3,3,
1,1,1,1,4,4,2,2,3,3,3,3,
1,1,1,1,4,4,2,2,3,3,3,3,
1,1,1,1,4,4,2,2,3,3,3,3,
1,1,1,1,4,4,2,2,3,3,3,3,
1,1,1,1,4,4,2,2,3,3,3,3
  </data>
 </layer>
 <layer id="3" name="Office Props" width="12" height="10">
  <data encoding="csv">
0,0,0,0,0,0,0,0,10,10,10,0,
0,5,0,9,0,0,0,8,10,0,9,0,
0,0,7,0,0,0,0,0,10,6,0,0,
0,0,0,0,0,11,0,0,10,0,6,0,
0,12,0,6,0,0,0,8,10,0,0,0,
0,0,0,0,0,0,0,0,10,6,0,9,
0,0,7,0,0,0,11,0,10,0,0,0,
0,6,0,0,0,0,0,0,10,0,6,0,
0,0,0,7,0,0,0,0,10,9,0,0,
0,0,0,0,0,0,0,0,0,0,0,0
  </data>
 </layer>
 <layer id="4" name="Architecture" width="12" height="10">
  <data encoding="csv">
10,10,10,10,0,0,0,0,10,10,10,10,
10,0,0,0,0,0,0,0,10,0,0,10,
10,0,0,0,0,0,0,0,10,0,0,10,
10,0,0,0,0,0,0,0,10,0,0,10,
10,0,0,0,0,0,0,0,10,0,0,10,
10,0,0,0,0,0,0,0,10,0,0,10,
10,0,0,0,0,0,0,0,10,0,0,10,
10,0,0,0,0,0,0,0,10,0,0,10,
10,0,0,0,0,0,0,0,10,0,0,10,
10,10,10,10,0,0,0,0,10,10,10,10
  </data>
 </layer>
 <objectgroup id="2" name="Reference Points">
  <object id="1" name="start" class="start" x="320" y="224"><point/></object>
  <object id="2" name="reception" x="256" y="144"><point/></object>
  <object id="3" name="visitor" x="448" y="176"><point/></object>
  <object id="4" name="secure-door" x="512" y="128"><point/></object>
 </objectgroup>
</map>
